assets/Hot pepper/Flat/hot_pepper_flat.svg

<svg width="32" height="32" viewBox="0 0 32 32" fill="none" xmlns="http://www.w3.org/2000/svg">
<path d="M9.81475 24.34C8.37475 25.42 6.78475 26.12 5.13475 26.47C3.70475 26.77 3.59475 28.77 4.98475 29.23C9.73475 30.79 15.1447 30.08 19.4447 26.85C23.8847 23.52 26.0847 18.31 25.7547 13.15C25.4747 8.70005 20.3647 6.33005 16.7947 9.01005C15.2747 10.15 14.4247 11.98 14.5647 13.87C14.8547 17.8 13.1947 21.8 9.81475 24.34Z" fill="#F8312F"/>
<path d="M20.9647 3C20.9647 2.44772 20.517 2 19.9647 2C19.4124 2 18.9647 2.44772 18.9647 3V5.03003H17.3547C14.5847 5.03003 12.3447 7.27003 12.3447 10.03C12.3447 11.1 12.8047 12.13 13.6047 12.85L13.6147 12.86C14.3347 13.51 15.4347 13.51 16.1547 12.86C16.8747 12.21 17.9747 12.21 18.6947 12.86C19.4147 13.51 20.5147 13.51 21.2347 12.86C21.9547 12.21 23.0547 12.21 23.7747 12.86C24.4947 13.51 25.5947 13.51 26.3147 12.86L26.3247 12.85C27.1247 12.13 27.5847 11.11 27.5847 10.03C27.5847 7.27003 25.3447 5.03003 22.5847 5.03003H20.9647V3Z" fill="#00D26A"/>
</svg>

<svg xmlns="http://www.w3.org/2000/svg" width="32" height="32" fill="none"><path fill="#F8312F" d="M9.815 24.34a11.867 11.867 0 0 1-4.68 2.13c-1.43.3-1.54 2.3-.15 2.76 4.75 1.56 10.16.85 14.46-2.38 4.44-3.33 6.64-8.54 6.31-13.7-.28-4.45-5.39-6.82-8.96-4.14a5.574 5.574 0 0 0-2.23 4.86c.29 3.93-1.37 7.93-4.75 10.47Z"/><path fill="#00D26A" d="M20.965 3a1 1 0 1 0-2 0v2.03h-1.61c-2.77 0-5.01 2.24-5.01 5 0 1.07.46 2.1 1.26 2.82l.01.01c.72.65 1.82.65 2.54 0s1.82-.65 2.54 0 1.82.65 2.54 0 1.82-.65 2.54 0 1.82.65 2.54 0l.01-.01a3.79 3.79 0 0 0 1.26-2.82c0-2.76-2.24-5-5-5h-1.62V3Z"/></svg>
